svg/fluentui-system-icons/ic_fluent_people_community_16_regular.svg

<svg width="16" height="16" viewBox="0 0 16 16" fill="none" xmlns="http://www.w3.org/2000/svg">
<path d="M3 3C3 1.89543 3.89543 1 5 1C6.10457 1 7 1.89543 7 3C7 3.64476 6.6949 4.21826 6.2212 4.584C6.20695 4.59451 6.19279 4.60515 6.17873 4.6159C5.84819 4.85743 5.44074 5 5 5C3.89543 5 3 4.10457 3 3ZM5 2C4.44772 2 4 2.44772 4 3C4 3.55228 4.44772 4 5 4C5.55228 4 6 3.55228 6 3C6 2.44772 5.55228 2 5 2ZM9.7788 4.584C9.3051 4.21826 9 3.64476 9 3C9 1.89543 9.89543 1 11 1C12.1046 1 13 1.89543 13 3C13 4.10457 12.1046 5 11 5C10.5593 5 10.1518 4.85744 9.82127 4.61591C9.80721 4.60515 9.79305 4.59451 9.7788 4.584ZM11 2C10.4477 2 10 2.44772 10 3C10 3.55228 10.4477 4 11 4C11.5523 4 12 3.55228 12 3C12 2.44772 11.5523 2 11 2ZM2.49998 6L5.17071 6C5.06015 6.31278 5 6.64936 5 7L2.49998 7C2.22387 7 2 7.22387 2 7.5C2 8.31691 2.32453 8.92273 2.8381 9.33495C3.07424 9.52449 3.35704 9.67798 3.67672 9.78955C3.44452 10.037 3.26211 10.3317 3.14547 10.6576C2.80551 10.5193 2.49098 10.3386 2.21215 10.1148C1.45897 9.51027 1 8.61608 1 7.5C1 6.67161 1.67156 6 2.49998 6ZM6.26756 6C6.09739 6.29417 6 6.63571 6 7C6 7.84354 6.52222 8.56511 7.26101 8.85904C7.48962 8.94999 7.73897 9 8 9C8.26103 9 8.51039 8.94999 8.739 8.85904C9.47778 8.5651 10 7.84354 10 7C10 6.63571 9.90261 6.29417 9.73244 6C9.38663 5.4022 8.74028 5 8 5C7.25972 5 6.61337 5.4022 6.26756 6ZM7.77563 6.02527C7.84776 6.00873 7.92286 6 8 6C8.07714 6 8.15224 6.00873 8.22437 6.02527C8.66862 6.12711 9 6.52486 9 7C9 7.07714 8.99127 7.15224 8.97473 7.22437C8.87289 7.66862 8.47514 8 8 8C7.52486 8 7.12711 7.66862 7.02527 7.22437C7.00874 7.15225 7 7.07714 7 7C7 6.52486 7.33138 6.12711 7.77563 6.02527ZM13.1619 9.33495C12.9258 9.52449 12.643 9.67798 12.3233 9.78955C12.5555 10.037 12.7379 10.3317 12.8545 10.6576C13.1945 10.5193 13.509 10.3386 13.7879 10.1148C14.541 9.51027 15 8.61608 15 7.5C15 6.67157 14.3284 6 13.5 6L10.8293 6C10.9398 6.31278 11 6.64936 11 7H13.5C13.7761 7 14 7.22386 14 7.5C14 8.31691 13.6755 8.92273 13.1619 9.33495ZM10.5 10C11.1259 10 11.6622 10.3833 11.8871 10.928C11.9598 11.1043 12 11.2975 12 11.5C12 12.6161 11.541 13.5103 10.7879 14.1148C10.0466 14.7098 9.05308 15 8 15C6.94692 15 5.95342 14.7098 5.21215 14.1148C4.45897 13.5103 4 12.6161 4 11.5C4 11.2975 4.04015 11.1043 4.11292 10.928C4.33778 10.3833 4.87412 10 5.49998 10L10.5 10ZM10.5 11L5.49998 11C5.22387 11 5 11.2239 5 11.5C5 12.3169 5.32453 12.9227 5.8381 13.3349C6.36358 13.7567 7.12008 14 8 14C8.87992 14 9.63642 13.7567 10.1619 13.3349C10.6755 12.9227 11 12.3169 11 11.5C11 11.2239 10.7761 11 10.5 11Z" fill="#212121"/>
</svg>

<svg xmlns="http://www.w3.org/2000/svg" width="16" height="16"><path d="M3 3a2 2 0 1 1 4 0 2 2 0 0 1-4 0Zm2-1a1 1 0 1 0 0 2 1 1 0 0 0 0-2Zm4.779 2.584a2 2 0 1 1 2.442-3.168A2 2 0 0 1 9.78 4.584ZM11 2a1 1 0 1 0 0 2 1 1 0 0 0 0-2ZM2.5 6h2.67c-.11.313-.17.65-.17 1H2.5a.5.5 0 0 0-.5.5c0 .817.325 1.423.838 1.835.236.19.519.343.839.455a2.5 2.5 0 0 0-.532.868 3.733 3.733 0 0 1-.933-.543C1.46 9.51 1 8.616 1 7.5A1.5 1.5 0 0 1 2.5 6Zm3.768 0a2 2 0 1 0 3.466 2 2 2 0 0 0-3.466-2Zm1.508.025A1.003 1.003 0 0 1 9 7a1 1 0 1 1-1.224-.975Zm5.386 3.31c-.236.19-.519.343-.839.455a2.5 2.5 0 0 1 .531.868c.34-.139.655-.32.934-.543C14.54 9.51 15 8.616 15 7.5A1.5 1.5 0 0 0 13.5 6h-2.67c.11.313.17.65.17 1h2.5a.5.5 0 0 1 .5.5c0 .817-.325 1.423-.838 1.835ZM10.5 10a1.5 1.5 0 0 1 1.5 1.5c0 1.116-.459 2.01-1.212 2.615C10.047 14.71 9.053 15 8 15c-1.053 0-2.047-.29-2.788-.885C4.46 13.51 4 12.616 4 11.5A1.496 1.496 0 0 1 5.5 10h5Zm0 1h-5a.5.5 0 0 0-.5.5c0 .817.325 1.423.838 1.835C6.364 13.757 7.12 14 8 14c.88 0 1.636-.243 2.162-.665.513-.412.838-1.018.838-1.835a.5.5 0 0 0-.5-.5Z"/></svg>
